.local/share/icons/Gruvbox-Plus-Dark/actions/symbolic/application-exit-symbolic.svg

<svg width="16" height="16" version="1.1" xmlns="http://www.w3.org/2000/svg">
  <defs>
    <style id="current-color-scheme" type="text/css">.ColorScheme-Text { color:#ebdbb2; } .ColorScheme-Highlight { color:#458588; }</style>
  </defs>
  <path class="ColorScheme-Text" d="m13 15c1.108-1e-6 2-0.892 2-2v-10c0-1.108-0.892-2-2-2h-10c-1.108 0-2 0.892-2 2l-1e-7 3.006 2-0.0059-3e-7 -3h10v10h-10l-4e-7 -3h-2l2e-7 3c1e-7 1.108 0.892 2 2 2zm-6-3 4-4-4-4-1.387 1.387 1.635 1.613-7.248-1e-6 2e-7 2 7.248-1e-6 -1.635 1.614z" fill="currentColor"/>
</svg>

<svg xmlns="http://www.w3.org/2000/svg" width="16" height="16" version="1.1">
 <path style="fill:#ebdbb2" d="M 3,1 C 1.89,1 1,1.892 1,3 V 6 H 3 V 3 H 13 V 13 H 3 V 10 H 1 V 13 C 1,14.108 1.89,15 3,15 H 13 C 14.11,15 15,14.108 15,13 V 3 C 15,1.892 14.11,1 13,1 Z"/>
 <path style="fill:#ebdbb2" d="M 7.21,4 5.83,5.386 7.46,7.021 0,7 V 9 L 7.46,9.021 5.83,10.655 7.21,12.041 11.21,8 Z"/>
</svg>
